svgs/duotone/memo.svg

<svg xmlns="http://www.w3.org/2000/svg" viewBox="0 0 384 512"><!--! Font Awesome Pro 6.3.0 by @fontawesome - https://fontawesome.com License - https://fontawesome.com/license (Commercial License) Copyright 2023 Fonticons, Inc. --><defs><style>.fa-secondary{opacity:.4}</style></defs><path class="fa-primary" d="M208 320h-128C71.16 320 64 327.2 64 336S71.16 352 80 352h128c8.838 0 16-7.164 16-16S216.8 320 208 320zM304 224h-224C71.16 224 64 231.2 64 240S71.16 256 80 256h224C312.8 256 320 248.8 320 240S312.8 224 304 224zM304 128h-224C71.16 128 64 135.2 64 144S71.16 160 80 160h224C312.8 160 320 152.8 320 144S312.8 128 304 128z"/><path class="fa-secondary" d="M320 0H64C28.65 0 0 28.65 0 64v384c0 35.35 28.65 64 64 64h256c35.35 0 64-28.65 64-64V64C384 28.65 355.3 0 320 0zM208 352h-128C71.16 352 64 344.8 64 336S71.16 320 80 320h128c8.838 0 16 7.164 16 16S216.8 352 208 352zM304 256h-224C71.16 256 64 248.8 64 240S71.16 224 80 224h224C312.8 224 320 231.2 320 240S312.8 256 304 256zM304 160h-224C71.16 160 64 152.8 64 144S71.16 128 80 128h224C312.8 128 320 135.2 320 144S312.8 160 304 160z"/></svg>

<svg xmlns="http://www.w3.org/2000/svg" viewBox="0 0 384 512"><!--! Font Awesome Pro 6.4.0 by @fontawesome - https://fontawesome.com License - https://fontawesome.com/license (Commercial License) Copyright 2023 Fonticons, Inc. --><defs><style>.fa-secondary{opacity:.4}</style></defs><path class="fa-primary" d="M80 128c-8.8 0-16 7.2-16 16s7.2 16 16 16H304c8.8 0 16-7.2 16-16s-7.2-16-16-16H80zm0 96c-8.8 0-16 7.2-16 16s7.2 16 16 16H304c8.8 0 16-7.2 16-16s-7.2-16-16-16H80zm0 96c-8.8 0-16 7.2-16 16s7.2 16 16 16H208c8.8 0 16-7.2 16-16s-7.2-16-16-16H80z"/><path class="fa-secondary" d="M0 64C0 28.7 28.7 0 64 0H320c35.3 0 64 28.7 64 64V448c0 35.3-28.7 64-64 64H64c-35.3 0-64-28.7-64-64V64zm64 80c0 8.8 7.2 16 16 16H304c8.8 0 16-7.2 16-16s-7.2-16-16-16H80c-8.8 0-16 7.2-16 16zm16 80c-8.8 0-16 7.2-16 16s7.2 16 16 16H304c8.8 0 16-7.2 16-16s-7.2-16-16-16H80zm0 96c-8.8 0-16 7.2-16 16s7.2 16 16 16H208c8.8 0 16-7.2 16-16s-7.2-16-16-16H80z"/></svg>
